!!!!SEGMENT: pl-kk--kk-i-377--001_rozycki-jacek--salve-decus.krn
!!!cenid: 16xx:729
!!!COM: Różycki, Jacek
!!!COM-rism: pe30020620
!!!CDT: ~1635-~1703
!!!CNT: Polish
!!!OTL: Salve decus
!!!PDT:
!!!AGN: Sacred
!!!SMS-siglum: PL-Kk
!!!SMS-shelfmark: Kk.I.377
!!!NIFC-rismID: 1001135222
!!!URL-scan: http://repozytorium.nifc.pl/skany/pl-kk-nut--i-377
!!!ONB-nifc: UWAGA: utwory w zbiorze: 1. Salve decus, 2. O Maria stella maris.
!!!SMS-variant:
!!!SMS-altvar:
**kern	**text	**text	**text	**text	**text	**kern	**text	**text	**text	**text	**text	**kern	**text	**text	**text	**text	**text	**kern	**text	**text	**text	**text	**text
*part4	*part4	*part4	*part4	*part4	*part4	*part3	*part3	*part3	*part3	*part3	*part3	*part2	*part2	*part2	*part2	*part2	*part2	*part1	*part1	*part1	*part1	*part1	*part1
*staff4	*staff4	*staff4	*staff4	*staff4	*staff4	*staff3	*staff3	*staff3	*staff3	*staff3	*staff3	*staff2	*staff2	*staff2	*staff2	*staff2	*staff2	*staff1	*staff1	*staff1	*staff1	*staff1	*staff1
*	*	*	*	*	*	*I"Tenore.	*	*	*	*	*	*I"Alto	*	*	*	*	*	*I"Canto	*	*	*	*	*
*I'B	*	*	*	*	*	*I'T	*	*	*	*	*	*I'A.	*	*	*	*	*	*I'S	*	*	*	*	*
*clefF4	*	*	*	*	*	*clefC4	*	*	*	*	*	*clefC3	*	*	*	*	*	*clefC1	*	*	*	*	*
*k[b-]	*	*	*	*	*	*k[b-]	*	*	*	*	*	*k[b-]	*	*	*	*	*	*k[b-]	*	*	*	*	*
*M3/2	*	*	*	*	*	*M3/2	*	*	*	*	*	*M3/2	*	*	*	*	*	*M3/2	*	*	*	*	*
=1	=1	=1	=1	=1	=1	=1	=1	=1	=1	=1	=1	=1	=1	=1	=1	=1	=1	=1	=1	=1	=1	=1	=1
*	*verse1	*verse2	*verse3	*verse4	*verse5	*	*verse1	*verse2	*verse3	*verse4	*verse5	*	*verse1	*verse2	*verse3	*verse4	*verse5	*	*verse1	*verse2	*verse3	*verse4	*verse5
2r	.	.	.	.	.	2r	.	.	.	.	.	2r	.	.	.	.	.	2r	.	.	.	.	.
*	*	*	*	*	*	*2\right	*	*	*	*	*	*2\right	*	*	*	*	*	*	*	*	*	*	*
2GG/	Sal-	Te	No-	Te	Pi-	2B-\	Sal-	Te	No-	Te	Pi-	2d\	Sal-	Te	No-	Te	Pi-	2g/	Sal-	Te	No-	Te	Pi-
*	*	*	*	*	*	*	*	*	*	*	*	*	*	*	*	*	*	*2\right	*	*	*	*	*
2GG/	-ve	cre-	-men	be-	-a	2G/	-ve	cre-	-men	be-	-a	2d\	-ve	cre-	-men	be-	-a	2b-\	-ve	cre-	-men	be-	-a
=2	=2	=2	=2	=2	=2	=2	=2	=2	=2	=2	=2	=2	=2	=2	=2	=2	=2	=2	=2	=2	=2	=2	=2
1D	de-	-a-	tu-	-a-	Ma-	1A	de-	-a-	tu-	-a-	Ma-	2d\	de-	-a-	tu-	-a-	Ma-	2f#X/	de-	-a-	tu-	-a-	ma-
.	.	.	.	.	.	.	.	.	.	.	.	1f#X	-cus	-vit	-um	-tam	-ter	1d	-cus	-vit	-um	-ta	-ter
2D/	-cus	-vit	-um	-tam	-ter	2A/	-cus	-vit	-um	-tam	-ter	.	.	.	.	.	.	.	.	.	.	.	.
=3	=3	=3	=3	=3	=3	=3	=3	=3	=3	=3	=3	=3	=3	=3	=3	=3	=3	=3	=3	=3	=3	=3	=3
2BB-/	hu-	Pa-	Dae-	lau-	per	2B-\	hu-	Pa-	Dae-	lau-	per	2d\	hu-	Pa-	Da(e)-	lau-	per	2g/	hu-	Pa-	Dae-	lau-	per
2AA/	-ma-	-ter	-mo-	-da-	tu-	2c\	-ma-	-ter	-mo-	-da-	tu-	2f#X\	-ma-	-ter	-mo-	-da-	tu-	(4a\	-ma-	ter	-mo-	-da-	tu-
.	.	.	.	.	.	.	.	.	.	.	.	.	.	.	.	.	.	4b-\	.	.	.	.	.
!LO:TX:t=P:problem:# pod poprzednią nutą	!	!	!	!	!	!	!	!	!	!	!	!	!	!	!	!	!	!	!	!	!	!	!
2FF#X/	-ni	in-	-nes	-re	-i	2A/	-ni	in-	-nes	-re	-i	2f#\	-ni	in-	-nes	-re	-i	4cc\	-ni	in-	-nes	-re	-i
.	.	.	.	.	.	.	.	.	.	.	.	.	.	.	.	.	.	4dd\)	.	.	.	.	.
=4	=4	=4	=4	=4	=4	=4	=4	=4	=4	=4	=4	=4	=4	=4	=4	=4	=4	=4	=4	=4	=4	=4	=4
2.GG/	ge-	-ge-	cru-	cu-	gra-	2.G/	ge-	-ge-	cru-	cu-	gra-	2.d\	ge-	-ge-	scru-	cu-	gra-	2.b-\	ge-	-ge-	scru-	cu-	gra-
4GG/	-ne-	-ni-	-ci-	-pi-	-ti-	4G/	-ne-	-ni-	-ci-	-pi-	-ti-	4d\	-ne-	-ni-	-ci-	-pi-	-ti-	4b-\	-ne-	-ni-	-ci-	-pi-	-ti-
!	!	!	!	!	!	!LO:TX:t=P:problem:# za nutą	!	!	!	!	!	!	!	!	!	!	!	!	!	!	!	!	!
2D/	-ris,	-tus,	-at,	-unt,	-am,	2F#X/	-ris,	-tus,	-at,	-unt,	-am,	2d\	-ris,	-tus,	-at,	-unt,	-am	2a\	-ris,	-tus,	-at,	-unt,	-am
=5	=5	=5	=5	=5	=5	=5	=5	=5	=5	=5	=5	=5	=5	=5	=5	=5	=5	=5	=5	=5	=5	=5	=5
2r	.	.	.	.	.	2r	.	.	.	.	.	2r	.	.	.	.	.	2r	.	.	.	.	.
2BB-/	sal-	o-	Splen-	O-	Re-	2B-\	Sal-	O-	Splen-	O-	Re-	2f\	Sal-	O-	Splen-	Om-	Re-	(4dd\	sal-	O-	Splen-	Om-	Re-
.	.	.	.	.	.	.	.	.	.	.	.	.	.	.	.	.	.	4ee\)	.	.	.	.	.
2BB-/	-ve	-bum	-dor	-mnes	-ver-	2F/	-ve	-bum-	-dor	-mnes	-ver-	2d\	-ve	-bum-	-dor	-nes	-ver-	(4ff\	-ve	-bum-	-dor	-nes	-ver-
.	.	.	.	.	.	.	.	.	.	.	.	.	.	.	.	.	.	4gg\)	.	.	.	.	.
=6	=6	=6	=6	=6	=6	=6	=6	=6	=6	=6	=6	=6	=6	=6	=6	=6	=6	=6	=6	=6	=6	=6	=6
!	!	!	!	!	!	!	!	!	!	!	!	!LO:TX:a:t=c.	!	!	!	!	!	!	!	!	!	!	!
1AA	m(a-	bra-	tu-	S(an)-	-ta-	1G	Ma-	-bra-	tu-	San-	-ta-	1c	Ma-	-bra-	tu	san-	-ta-	1ee-X	ma-	-bra-	tu-	S(an)-	-ta-
2BB-/	-te)r	-vit	-o(s)	-cti	-t(ur)	2F/	-ter	-vit	-o(s)	-cti,	-tur	2d\	-ter	-vit	-(os)	-cti	-tur	2dd\	-ter	-vit	-(us)	-cti	-t(ur)
=7-	=7	=7	=7	=7	=7	=7-	=7	=7	=7	=7	=7	=7	=7	=7	=7	=7	=7	=7	=7	=7	=7	=7	=7
*2\right	*	*	*	*	*	*	*	*	*	*	*	*	*	*	*	*	*	*	*	*	*	*	*
2.E-X\	di-	te	ca(e)-	sed	E-	4G/	di-	te	ca(e)-	sed	e-	2.e-X\	di-	te	ca(e)-	sed	E-	1gg	di-	te	cae-	sed	E-
.	.	.	.	.	.	4A/	.	.	.	.	.	.	.	.	.	.	.	.	.	.	.	.	.
.	.	.	.	.	.	2B-\	-gni-	u-	-cos	non	-xul	.	.	.	.	.	.	.	.	.	.	.	.
4E-\	-gni-	U-	-cos	non	-xul	.	.	.	.	.	.	4e-\	-gni-	U-	-cos	n(on)	-xul	.	.	.	.	.	.
2A-X\	-or	-ni-	ir-	suf-	in	2c\	-or	-ni-	ir-	suf-	in	2f\	-or	-ni-	ir-	suf-	in	4cc\	-gni-	U-	-os	n(on)	-xul
.	.	.	.	.	.	.	.	.	.	.	.	.	.	.	.	.	.	4b-\	-or	-ni-	ir-	suf-	in
=8	=8	=8	=8	=8	=8	=8	=8	=8	=8	=8	=8	=8	=8	=8	=8	=8	=8	=8	=8	=8	=8	=8	=8
!	!	!	!	!	!	!LO:TX:t=P:problem:# jako kasownik	!	!	!	!	!	!	!	!	!	!	!	!	!	!	!	!	!
2.G\	cae-	-ge-	-ra-	-fi-	Pa-	2.Bn\	ca(e)-	-ge-	-ra-	-fi-	Pa-	2.d\	ca(e)-	-ge-	-ra-	-fi-	Pa-	2.dd\	cae-	-ge-	-ra-	-fi-	Pa-
4G\	-te-	-ni-	-di-	-ci-	-tri-	4B\	-te-	-ni-	-di-	-ci-	-tri-	4g\	-te-	-ni-	-di-	-ci-	-tri-	4dd\	-te-	-ni-	-di-	-ci-	-tri-
2G\	-ris,	-tus,	-at,	-un(t),	-am,	2B\	-ris,	-tus,	-at,	-unt,	-am,	2g\	-ris,	-tus,	-at,	-unt,	-am,	2dd\	-ris,	-tus,	-at	-unt,	-am,
=9	=9	=9	=9	=9	=9	=9	=9	=9	=9	=9	=9	=9	=9	=9	=9	=9	=9	=9	=9	=9	=9	=9	=9
2r	.	.	.	.	.	2r	.	.	.	.	.	2r	.	.	.	.	.	2r	.	.	.	.	.
!	!	!	!	!	!	!	!	!	!	!	!	!	!	!	!	!	!	!LO:TX:t=P:problem:# jako kasownik	!	!	!	!	!
1G	qua(e)	fe-	O-	Nam	Pec-	(4d\	qua(e)	fe-	O-	Nam	Pec-	1g	qua(e)	fae-	O-	Nam	Pec-	4bn\	quae	fe-	O-	Nam	Pec-
.	.	.	.	.	.	4c\)	.	.	.	.	.	.	.	.	.	.	.	4cc\	.	.	.	.	.
!	!	!	!	!	!	!LO:TX:t=P:problem:# jako kasownik,pod nutą	!	!	!	!	!	!	!	!	!	!	!	!	!	!	!	!	!
.	.	.	.	.	.	2Bn\	.	.	.	.	.	.	.	.	.	.	.	4dd\	.	.	.	.	.
.	.	.	.	.	.	.	.	.	.	.	.	.	.	.	.	.	.	4ee\	.	.	.	.	.
=10	=10	=10	=10	=10	=10	=10	=10	=10	=10	=10	=10	=10	=10	=10	=10	=10	=10	=10	=10	=10	=10	=10	=10
2.E\	Vir-	-cun-	-dor	tot	-ca-	4c\	Vir-	-cun-	-dor-	tot	-ca-	2.g\	Vir-	-cun-	-dor	tot	-ca-	2.cc\	Vir-	-cun-	-dor	tot	-ca-
.	.	.	.	.	.	4d\	.	.	.	.	.	.	.	.	.	.	.	.	.	.	.	.	.
.	.	.	.	.	.	4e\	.	.	.	.	.	.	.	.	.	.	.	.	.	.	.	.	.
4E\	-gi-	-da-	tu-	lau-	-to-	4e\	-gi-	-da-	-tu-	lau-	-to-	4g\	-gi-	-da-	tu-	lau-	-to-	4cc\	-gi-	-da-	tu-	lau-	-to-
2E\	-nes	-vit	-us	-des	-res	2e\	-nes	-vit	-us	-des	-res	2g\	-nes	-vit	-us	-des	-res	2b-\	-nes	-vit	-(us)	-des	-res
=11-	=11	=11	=11	=11	=11	=11	=11	=11	=11	=11	=11	=11	=11	=11	=11	=11	=11	=11	=11	=11	=11	=11	=11
2F\	om-	te	S(an)-	ti-	me-	2c\	om-	te	San-	ti-	me-	2f\	o(m-	te	San-	ti-	me-	2a-X\	om-	te	S(an)-	ti-	me-
2GG/	-nes	S(an)-	-ctos	-bi	-ren-	2B-\	-nes	San-	-ctos	-bi	-ren-	2d\	-n)es	S(an)-	-ctos	-bi	-ren-	2b-\	-nes	Sa(n)-	-ctos	-bi	-ren-
2AA-X/	tran-	-ctus,	i-	con-	-t(ur)	2A-X/	trans-	-ctus	i-	con-	-tur	2f\	trans-	-ctu(m)	in-	con-	-tur	2cc\	trans-	-ctus	i-	con-	-tur
=12	=12	=12	=12	=12	=12	=12	=12	=12	=12	=12	=12	=12	=12	=12	=12	=12	=12	=12-	=12	=12	=12	=12	=12
2.C/	-gre-	Sp(i-	-ne-	-ve-	Ve-	2.G/	gre-	Spi-	-ne-	-ve-	Ve-	2.f\	-gre-	Spi-	-e-	-ve-	Ve-	2.g/	-gre-	Spi-	-ne-	-ve-	Ve-
4C/	-de-	-ri-	-bri-	-ni-	-ni-	4G/	-de-	-ri-	-bri-	-ni-	-ni-	4e\	-de-	-ri-	-bri-	-ni-	-ni-	4g/	-de-	-ri-	-bri-	-ni-	-ni-
2FF,</	-ris,	-t)us,	-at,	-unt.	-am,	2A,</	-ris,	-tus,	-at,	-unt,	-am,	2f,<\	-ris,	-tus,	-at,	-unt,	-am,	2f,</	-ris,	-tus,	-at,	-unt,	-am,
=13	=13	=13	=13	=13	=13	=13	=13	=13	=13	=13	=13	=13	=13	=13	=13	=13	=13	=13	=13	=13	=13	=13	=13
2AA/	et	tu	fru-	quod	Et	2A/	et	tu	fru-	quod	Et	2f\	et	tu	fru-	quod	Et	2cc\	et	tu-	fru-	q(uo)d	Et
2.AA/	al-	es	-ctus	lau-	be-	2.c\	al-	es	-ctus	lau-	be-	2.a\	al-	es	-ctus	lau-	be-	2.ff\	al-	-es	-ctus	lau-	be-
4AA/	-ti-	fa-	Ve-	-dan-	-a-	4c\	-ti-	fa-	Ve-	-dan-	-a-	4a\	-ti-	fa-	Ve-	-dan-	-a-	4ee\	-ti-	fa-	Ve-	-dan-	-a-
=14	=14	=14	=14	=14	=14	=14	=14	=14	=14	=14	=14	=14	=14	=14	=14	=14	=14	=14	=14	=14	=14	=14	=14
1BB-	-us	-cta	-ro	-tes	-ti	2d\	-us	-cta	-ro	-tes	-ti	1f	-us	-cta	-ro	-tes	-ti	1dd	-us	-cta	-ro	-tes	-ti
.	.	.	.	.	.	(4B-\	se-	to-	be-	om-	poſ-	.	.	.	.	.	.	.	.	.	.	.	.
.	.	.	.	.	.	4c\)	.	.	.	.	.	.	.	.	.	.	.	.	.	.	.	.	.
!LO:TX:t=P:problem:# jako kasownik	!	!	!	!	!	!	!	!	!	!	!	!	!	!	!	!	!	!	!	!	!	!	!
2BBn/	se-	to-	be-	o(m-	poſ-	2d\	.	.	.	.	-si-	2g\	se-	to-	be-	o(m-	poſ-	4gg\	Se-	to-	be-	om-	poſ-
.	.	.	.	.	.	.	.	.	.	.	.	.	.	.	.	.	.	4ff\	.	.	.	.	.
=15	=15	=15	=15	=15	=15	=15	=15	=15	=15	=15	=15	=15	=15	=15	=15	=15	=15	=15	=15	=15	=15	=15	=15
1C	-des	-ta	-a-	-n)es	-si-	4c\	.	.	.	.	-dent	1g	-des	-ta	-a-	-n)es	-si-	4ee-X\	.	.	.	.	.
.	.	.	.	.	.	4B-\	.	.	.	.	.	.	.	.	.	.	.	4dd\	.	.	.	.	.
.	.	.	.	.	.	(2A/	-des	-ta	-a-	-nes	glo-	.	.	.	.	.	.	(4cc\	-des	-ta	-a-	-nes	-si-
.	.	.	.	.	.	.	.	.	.	.	.	.	.	.	.	.	.	4dd\)	.	.	.	.	.
2E-X\	in	Di-	-tos	de-	-dent	2G/)	.	.	.	.	.	2e-X\	in	Di-	-tos	de-	-dent	1b-\	in	Di-	-tos	de-	-dent
=16	=16	=16	=16	=16	=16	=16	=16	=16	=16	=16	=16	=16	=16	=16	=16	=16	=16	=16-	=16	=16	=16	=16	=16
2BB-/	.	.	.	-fi-	.	2G/	in	Di-	-tos	de-	ri-	1d	su-	-vi-	ſa-	-fi-	glo-	.	.	.	.	.	.
2.D/	su-	-vi-	Sa-	.	glo-	2.G/	su-	-vi-	sa-	-fi-	.	.	.	.	.	.	.	2.a\	su-	-vi-	Sa-	-fi-	glo-
.	.	.	.	.	.	.	.	.	.	.	.	2d\	-pe-	-ni-	-ti-	-ci-	-ri-	.	.	.	.	.	.
!	!	!	!	!	!	!LO:TX:t=P:problem:# pod poprzednią nutą	!	!	!	!	!	!	!	!	!	!	!	!	!	!	!	!	!
4D/	-pe-	-ni-	-ti-	-ci-	-ri-	4F#X/	-pe-	-ni-	-ti-	-ci-	.	.	.	.	.	.	.	4g/	-pe-	-ni-	-ti-	-ci-	-ri-
=17-	=17	=17	=17	=17	=17	=17	=17	=17	=17	=17	=17	=17-	=17	=17	=17	=17	=17	=17	=17	=17	=17	=17	=17
1.GG	-ris.	-tus.	-at.	-unt.	-am.	1G	-ris.	-tus	-at.	-unt.	-am.	1.d	-ris.	-tus.	-at	-unt.	-am.	1.g	-ris.	-tus	-at.	-unt	-am.
.	.	.	.	.	.	2r	.	.	.	.	.	.	.	.	.	.	.	.	.	.	.	.	.
==	==	==	==	==	==	==	==	==	==	==	==	==	==	==	==	==	==	==	==	==	==	==	==
*-	*-	*-	*-	*-	*-	*-	*-	*-	*-	*-	*-	*-	*-	*-	*-	*-	*-	*-	*-	*-	*-	*-	*-
!!!system-decoration: [(s1,s2,s3,s4)]
!!!RDF**kern: < = below
!!!ENC: Marta Lawrence
!!!END: 2021-01-24
!!!ENC: Marcin Jachim
!!!END: 2021-01-20
